public/assets/brands/nec.svg

<svg fill="none" height="212" viewBox="0 0 212 212" width="212" xmlns="http://www.w3.org/2000/svg" xmlns:xlink="http://www.w3.org/1999/xlink"><clipPath id="a"><path d="m0 0h212v212h-212z"/></clipPath><g clip-path="url(#a)"><path d="m206 0h-200c-3.31371 0-6 2.68629-6 6v200c0 3.314 2.68629 6 6 6h200c3.314 0 6-2.686 6-6v-200c0-3.31371-2.686-6-6-6z" fill="#f5f5f5"/><g clip-rule="evenodd" fill="#000" fill-rule="evenodd"><path d="m181.9 87.68c-6.68-1.06-14.42-1.06-16.69-1.06-16.54.3-31.56 2.28-31.56 19.42 0 14.11 8.34 19.88 34.29 19.88 6.83 0 7.59 0 14.57-.91v-5.91c-4.05.74-8.17 1.09-12.29 1.06-6.98 0-19.87-.3-19.87-13.96 0-10.02 4.7-14.11 17.6-14.42 6.07-.15 10.32.61 13.96 1.36v-5.47h-.01z"/><path d="m86.3 87.6799v27.6201c0 5.31 4.4 9.26 11.84 9.26.15 0 5.76.15 14.42.3 6.22 0 15.48-.15 18.82-.3v-5.76h-24.58c-3.49 0-4.55-2.28-4.55-3.49v-7.75h25.65v-5.3h-25.65v-9.1101h28.38v-5.46h-44.33z"/><path d="m31.98 87.6799v36.4201h7.28v-25.8001l19.27 21.0901c2.43 2.73 4.86 4.86 8.04 4.86h13.51v-36.5701h-7.29v26.7101l-20.94-22.7601c-1.97-2.13-4.4-3.95-7.89-3.95h-11.99z"/></g></g></svg>

<svg width="212" height="212" viewBox="0 0 212 212" fill="none" xmlns="http://www.w3.org/2000/svg">
<g clip-path="url(#clip0_142_2215)">
<path d="M206 0H6C2.68629 0 0 2.68629 0 6V206C0 209.314 2.68629 212 6 212H206C209.314 212 212 209.314 212 206V6C212 2.68629 209.314 0 206 0Z" fill="#F5F5F5"/>
<path fill-rule="evenodd" clip-rule="evenodd" d="M181.9 87.68C175.22 86.62 167.48 86.62 165.21 86.62C148.67 86.92 133.65 88.9 133.65 106.04C133.65 120.15 141.99 125.92 167.94 125.92C174.77 125.92 175.53 125.92 182.51 125.01V119.1C178.46 119.84 174.34 120.19 170.22 120.16C163.24 120.16 150.35 119.86 150.35 106.2C150.35 96.18 155.05 92.09 167.95 91.78C174.02 91.63 178.27 92.39 181.91 93.14V87.67H181.9V87.68Z" fill="black"/>
<path fill-rule="evenodd" clip-rule="evenodd" d="M86.3 87.6799V115.3C86.3 120.61 90.7 124.56 98.14 124.56C98.29 124.56 103.9 124.71 112.56 124.86C118.78 124.86 128.04 124.71 131.38 124.56V118.8H106.8C103.31 118.8 102.25 116.52 102.25 115.31V107.56H127.9V102.26H102.25V93.1499H130.63V87.6899H86.3V87.6799Z" fill="black"/>
<path fill-rule="evenodd" clip-rule="evenodd" d="M31.98 87.6799V124.1H39.26V98.2999L58.53 119.39C60.96 122.12 63.39 124.25 66.57 124.25H80.08V87.6799H72.79V114.39L51.85 91.6299C49.88 89.4999 47.45 87.6799 43.96 87.6799H31.97H31.98Z" fill="black"/>
</g>
<defs>
<clipPath id="clip0_142_2215">
<rect width="212" height="212" fill="white"/>
</clipPath>
</defs>
</svg>
